www/assets/icons/live_help.svg

<svg xmlns="http://www.w3.org/2000/svg" width="24" height="24" viewBox="0 0 24 24" fill='currentColor'><path d="M19 1.5H5a2 2 0 0 0-2 2v14a2 2 0 0 0 2 2h4l3 3 3-3h4c1.1 0 2-.9 2-2v-14c0-1.1-.9-2-2-2m-6 16h-2v-2h2zm2.07-7.75-.9.92C13.45 11.4 13 12 13 13.5h-2V13c0-1.1.45-2.1 1.17-2.83l1.24-1.26c.37-.36.59-.86.59-1.41 0-1.1-.9-2-2-2s-2 .9-2 2H8c0-2.21 1.79-4 4-4s4 1.79 4 4c0 .88-.36 1.68-.93 2.25"/></svg>

<svg width="24" height="24" viewBox="0 0 24 24" xmlns="http://www.w3.org/2000/svg" fill='currentColor'><path d="M19 1.5H5C3.89 1.5 3 2.4 3 3.5V17.5C3 18.6 3.89 19.5 5 19.5H9L12 22.5L15 19.5H19C20.1 19.5 21 18.6 21 17.5V3.5C21 2.4 20.1 1.5 19 1.5ZM13 17.5H11V15.5H13V17.5ZM15.07 9.75L14.17 10.67C13.45 11.4 13 12 13 13.5H11V13C11 11.9 11.45 10.9 12.17 10.17L13.41 8.91C13.78 8.55 14 8.05 14 7.5C14 6.4 13.1 5.5 12 5.5C10.9 5.5 10 6.4 10 7.5H8C8 5.29 9.79 3.5 12 3.5C14.21 3.5 16 5.29 16 7.5C16 8.38 15.64 9.18 15.07 9.75Z"/></svg>
